icons/evolvere-blue-folders-flat-vivid-dark-fallback/apps/64/ekiga.svg

<?xml version="1.0" encoding="UTF-8" standalone="no"?>
<!-- Created with Inkscape (http://www.inkscape.org/) -->

<svg
   xmlns:dc="http://purl.org/dc/elements/1.1/"
   xmlns:cc="http://creativecommons.org/ns#"
   xmlns:rdf="http://www.w3.org/1999/02/22-rdf-syntax-ns#"
   xmlns:svg="http://www.w3.org/2000/svg"
   xmlns="http://www.w3.org/2000/svg"
   xmlns:sodipodi="http://sodipodi.sourceforge.net/DTD/sodipodi-0.dtd"
   xmlns:inkscape="http://www.inkscape.org/namespaces/inkscape"
   width="64"
   height="64"
   id="svg13094"
   version="1.1"
   inkscape:version="0.91+devel r"
   sodipodi:docname="ekiga.svg">
  <sodipodi:namedview
     id="base"
     pagecolor="#ffffff"
     bordercolor="#666666"
     borderopacity="1.0"
     inkscape:pageopacity="0"
     inkscape:pageshadow="2"
     inkscape:zoom="11.313709"
     inkscape:cx="36.296845"
     inkscape:cy="30.989183"
     inkscape:document-units="px"
     inkscape:current-layer="svg13094"
     showgrid="true"
     inkscape:snap-bbox="true"
     inkscape:bbox-paths="true"
     inkscape:bbox-nodes="true"
     inkscape:snap-bbox-edge-midpoints="true"
     inkscape:snap-bbox-midpoints="true"
     inkscape:object-paths="true"
     inkscape:snap-intersection-paths="true"
     inkscape:object-nodes="true"
     inkscape:snap-smooth-nodes="true"
     inkscape:snap-midpoints="true"
     inkscape:snap-object-midpoints="true"
     inkscape:snap-center="true"
     showguides="true"
     inkscape:guide-bbox="true"
     inkscape:window-width="1920"
     inkscape:window-height="1023"
     inkscape:window-x="-10"
     inkscape:window-y="35"
     inkscape:window-maximized="1"
     inkscape:snap-global="true"
     fit-margin-top="0"
     fit-margin-left="0"
     fit-margin-right="0"
     fit-margin-bottom="0"
     showborder="true"
     inkscape:showpageshadow="false"
     inkscape:snap-page="true">
    <inkscape:grid
       type="xygrid"
       id="grid3075"
       empspacing="5"
       visible="true"
       enabled="true"
       snapvisiblegridlinesonly="true"
       originx="1.6362304e-08px"
       originy="18px" />
  </sodipodi:namedview>
  <defs
     id="defs13096" />
  <metadata
     id="metadata13099">
    <rdf:RDF>
      <cc:Work
         rdf:about="">
        <dc:format>image/svg+xml</dc:format>
        <dc:type
           rdf:resource="http://purl.org/dc/dcmitype/StillImage" />
        <dc:title></dc:title>
      </cc:Work>
    </rdf:RDF>
  </metadata>
  <path
     id="path3983"
     d="m 0,4 0,30 0,28 2,2 30,0 30,0 2,-2 L 64,34 64,4 32,4 0,4 z"
     style="color:#000000;fill:#e5820d;fill-opacity:1;fill-rule:nonzero;stroke:none;stroke-width:2.28571415;marker:none;visibility:visible;display:inline;overflow:visible;enable-background:accumulate"
     inkscape:connector-curvature="0" />
  <path
     inkscape:connector-curvature="0"
     style="color:#000000;fill:#ffbe55;fill-opacity:1;fill-rule:nonzero;stroke:none;marker:none;visibility:visible;display:inline;overflow:visible;enable-background:accumulate"
     d="M 2,0 0,1 0,4 32,4 64,4 64,1 62,0 32,0 2,0 z"
     id="path6502" />
  <path
     d="M 64,6 62,4 64,3 z"
     id="path3028"
     style="fill:#f29f31;fill-opacity:1"
     inkscape:connector-curvature="0" />
  <g
     id="g3043"
     inkscape:export-filename="folder.png"
     inkscape:export-xdpi="90"
     inkscape:export-ydpi="90"
     transform="translate(-0.62500009,0.082283)" />
  <g
     id="scalable"
     transform="matrix(1.0385892,0,0,1.0385892,1214.7222,1878.8121)"
     inkscape:label="#g3701"
     style="fill:#ffffff" />
  <path
     inkscape:connector-curvature="0"
     style="fill:#ffcc79;fill-opacity:1;fill-rule:nonzero"
     d="M 0,3 0,6 2,4 Z"
     id="path4298"
     sodipodi:nodetypes="cccc" />
  <path
     style="color:#000000;fill:#ffffff;fill-opacity:0.88550985;fill-rule:nonzero;stroke:none;stroke-width:1.20000005;marker:none;visibility:visible;display:inline;overflow:visible;enable-background:accumulate"
     d="M 45.40625 13.8125 C 44.493272 13.811736 43.615107 14.04193 42.875 14.40625 C 42.91159 14.458704 42.94153 14.53389 42.96875 14.59375 L 46.96875 23.21875 C 48.89545 23.101231 52.437554 26.994379 52.4375 34 C 52.437554 41.005621 48.89545 44.898769 46.96875 44.78125 L 42.96875 53.40625 C 42.94153 53.466111 42.91159 53.5413 42.875 53.59375 C 43.615107 53.95807 44.493272 54.188264 45.40625 54.1875 C 46.18139 54.187038 46.977294 54.021873 47.71875 53.59375 C 50.757823 51.839163 56.000044 44.164648 56 34 C 56.000044 23.835352 50.757823 16.160837 47.71875 14.40625 C 46.977294 13.978127 46.18139 13.812962 45.40625 13.8125 z M 41.1875 15.03125 C 41.116758 15.03209 41.03722 15.06398 40.96875 15.09375 L 38.5625 16.21875 L 38.5625 16.25 C 38.292207 16.375294 38.155858 16.667426 38.28125 16.9375 L 42 25 C 42.125267 25.270293 42.448662 25.406938 42.71875 25.28125 L 45.1875 24.15625 C 45.457874 24.031068 45.562933 23.707648 45.4375 23.4375 L 41.6875 15.34375 C 41.593488 15.140938 41.397037 15.02385 41.1875 15.03125 z M 17 16 L 15 34 L 19 34 L 17 16 z M 19 34 L 21 52 L 23 34 L 19 34 z M 23 34 L 25 40 L 27 34 L 23 34 z M 27 34 L 31 34 L 29 22 L 27 34 z M 31 34 L 33 47 L 35 34 L 31 34 z M 35 34 L 39 34 L 37 28 L 35 34 z M 39 34 L 43 34 L 41 31 L 39 34 z M 43 34 L 45 38 L 47 34 L 43 34 z M 47 34 L 51 34 L 49 31 L 47 34 z M 15 34 L 11 34 L 13 39 L 15 34 z M 11 34 L 9 26 L 7 34 L 11 34 z M 42.53125 42.65625 C 42.321842 42.646933 42.09395 42.797275 42 43 L 38.28125 51.0625 C 38.155858 51.332574 38.292255 51.624706 38.5625 51.75 L 38.5625 51.78125 L 40.96875 52.90625 C 41.037223 52.93603 41.11676 52.967908 41.1875 52.96875 C 41.397037 52.976123 41.59349 52.859067 41.6875 52.65625 L 45.4375 44.5625 C 45.562933 44.292352 45.457879 43.968932 45.1875 43.84375 L 42.71875 42.71875 C 42.651228 42.68733 42.60105 42.65935 42.53125 42.65625 z "
     id="path4174" />
</svg>

<svg xmlns="http://www.w3.org/2000/svg" viewBox="0 0 64 64"><g color="#000"><path d="m0 4v30 28l2 2h30 30l2-2v-28-30h-32-32" fill="#e5820d"/><path d="m2 0l-2 1v3h32 32v-3l-2-1h-30-30" fill="#ffbe55"/></g><path d="m64 6l-2-2 2-1z" fill="#f29f31"/><path d="m0 3v3l2-2" fill="#ffcc79"/><path d="m45.41 13.813c-.913-.001-1.791.229-2.531.594.037.052.067.128.094.188l4 8.625c1.927-.118 5.469 3.776 5.469 10.781 0 7.01-3.542 10.899-5.469 10.781l-4 8.625c-.027.06-.057.135-.094.188.74.364 1.618.595 2.531.594.775 0 1.571-.166 2.313-.594 3.039-1.755 8.281-9.429 8.281-19.594 0-10.165-5.242-17.839-8.281-19.594-.741-.428-1.537-.593-2.313-.594m-4.219 1.219c-.071.001-.15.033-.219.063l-2.406 1.125v.031c-.27.125-.407.417-.281.688l3.719 8.06c.125.27.449.407.719.281l2.469-1.125c.27-.125.375-.449.25-.719l-3.75-8.094c-.094-.203-.29-.32-.5-.313m-24.19.969l-2 18h4l-2-18m2 18l2 18 2-18h-4m4 0l2 6 2-6h-4m4 0h4l-2-12-2 12m4 0l2 13 2-13h-4m4 0h4l-2-6-2 6m4 0h4l-2-3-2 3m4 0l2 4 2-4h-4m4 0h4l-2-3-2 3m-32 0h-4l2 5 2-5m-4 0l-2-8-2 8h4m31.531 8.656c-.209-.009-.437.141-.531.344l-3.719 8.06c-.125.27.011.562.281.688v.031l2.406 1.125c.068.03.148.062.219.063.21.007.406-.11.5-.313l3.75-8.094c.125-.27.02-.594-.25-.719l-2.469-1.125c-.068-.031-.118-.059-.188-.063" fill="#fff" fill-opacity=".886" color="#000"/></svg>
